X:91
T: FINSTER IST DIE MITTERNACHT
N: Z0091
O: Europa, Mitteleuropa, Deutschland, Koeln
R: Sagen - Lied, Romanze, Sage
M: 4/4
L: 1/16
K: Ab
A3A | A6E2E6D2 | D4C4z4
A3F | F4E8A3F | F4E8z4
B6A2G2F2E2D2 | C2E2A8z4
c6A2c2A2e2c2 | c8B4z4
e12a4 | f12e2d2 | c12B4 | A8z4

